X:2189
T:Fare you well Enniskillen
C:Traditional
O:Isle of Man 
Z:Clague collection
N:See also KV382
B:Kiaull Vannin #189 
M:4/4  
L:1/4
K:D 
DD|D2 EF|GB AA|E2 DD|D2 AA|d2 Bd|cB GF|E2 FG|A2 AA|
c2 Bd|cA GF|E2 FG|A2 GE|D2 EF|GB AA|E2 DD|D2||

